src/components/00-materials/images-raw/Health/Hand Cross.svg

<svg xmlns="http://www.w3.org/2000/svg" viewBox="0 0 96 96"><defs><style>.cls-2{fill:none;stroke:#00008f;stroke-linecap:round;stroke-linejoin:round;stroke-width:2px}</style></defs><g id="Layer_2" data-name="Layer 2"><g id="icons"><path fill="#fff" d="M0 0h96v96H0z"/><path class="cls-2" d="M62 23h-8v-8a1 1 0 0 0-1-1H43a1 1 0 0 0-1 1v8h-8a1 1 0 0 0-1 1v10a1 1 0 0 0 1 1h8v8a1 1 0 0 0 1 1h10a1 1 0 0 0 1-1v-8h8a1 1 0 0 0 1-1V24a1 1 0 0 0-1-1zM43.36 61.39l9.32 1.3a8.6 8.6 0 0 0 2.21 0h.4a4 4 0 0 0 2.78-3.48 4 4 0 0 0-3.68-4.29l-12.85-1.66a15.28 15.28 0 0 0-12.28 3.91l-7.78 7.15-.57.43"/><path class="cls-2" d="M38.61 72.69c.68 0 15.58 2.89 15.58 2.89a6.76 6.76 0 0 0 4.81-.87l11.74-7.21 11.55-10.9a2.27 2.27 0 0 0 .23-3.05 4 4 0 0 0-5.64-.7l-9.55 7.44-12 2.38M38.61 72.69a4.86 4.86 0 0 0-3.22 1.13l-3.86 3.28M19.94 63.62a2 2 0 0 0-2.82-.22l-3.42 2.9a2 2 0 0 0-.22 2.81L25.54 83.3a2 2 0 0 0 2.82.22l3.42-2.9a2 2 0 0 0 .22-2.81z"/></g></g></svg>

<svg xmlns="http://www.w3.org/2000/svg" viewBox="0 0 96 96"><defs><style>.cls-1{fill:#fff;}.cls-2{fill:none;stroke:#00008f;stroke-linecap:round;stroke-linejoin:round;stroke-width:2px;}</style></defs><title>Hand Cross</title><g id="Layer_2" data-name="Layer 2"><g id="icons"><rect class="cls-1" width="96" height="96"/><path class="cls-2" d="M62,23H54V15a1,1,0,0,0-1-1H43a1,1,0,0,0-1,1v8H34a1,1,0,0,0-1,1V34a1,1,0,0,0,1,1h8v8a1,1,0,0,0,1,1H53a1,1,0,0,0,1-1V35h8a1,1,0,0,0,1-1V24A1,1,0,0,0,62,23Z"/><path class="cls-2" d="M43.36,61.39l9.32,1.3a8.6,8.6,0,0,0,2.21,0l.4,0a4,4,0,0,0,2.78-3.48,4,4,0,0,0-3.68-4.29L41.54,53.26a15.28,15.28,0,0,0-12.28,3.91l-7.78,7.15-.57.43"/><path class="cls-2" d="M38.61,72.69c.68,0,15.58,2.89,15.58,2.89A6.76,6.76,0,0,0,59,74.71L70.74,67.5,82.29,56.6a2.27,2.27,0,0,0,.23-3.05h0a4,4,0,0,0-5.64-.7l-9.55,7.44-12,2.38"/><path class="cls-2" d="M38.61,72.69a4.86,4.86,0,0,0-3.22,1.13L31.53,77.1"/><path class="cls-2" d="M19.94,63.62a2,2,0,0,0-2.82-.22L13.7,66.3a2,2,0,0,0-.22,2.81L25.54,83.3a2,2,0,0,0,2.82.22l3.42-2.9A2,2,0,0,0,32,77.81Z"/></g></g></svg>
